src/assets/Icons/Services.svg

<svg width="81" height="80" viewBox="0 0 81 80" fill="none" xmlns="http://www.w3.org/2000/svg">
<path opacity="0.3" d="M80.5 40C80.5 62.0914 62.5914 80 40.5 80C18.4086 80 0.5 62.0914 0.5 40C0.5 17.9086 18.4086 0 40.5 0C62.5914 0 80.5 17.9086 80.5 40ZM11.4071 40C11.4071 56.0675 24.4325 69.0929 40.5 69.0929C56.5675 69.0929 69.5929 56.0675 69.5929 40C69.5929 23.9325 56.5675 10.9071 40.5 10.9071C24.4325 10.9071 11.4071 23.9325 11.4071 40Z" fill="#2F2E30"/>
<circle cx="40.5" cy="40" r="29" fill="black"/>
<path d="M54.6416 25H47.9883L48.8216 33.3333C48.8216 33.3333 50.4883 35 52.9883 35C54.3006 35.0017 55.5684 34.524 56.5533 33.6567C56.6574 33.5594 56.735 33.4372 56.7787 33.3016C56.8224 33.166 56.8309 33.0214 56.8033 32.8817L55.6266 25.8333C55.5873 25.6005 55.4668 25.3891 55.2865 25.2366C55.1062 25.084 54.8778 25.0002 54.6416 25V25Z" stroke="white" stroke-width="2"/>
<path d="M47.9883 25L48.8216 33.3333C48.8216 33.3333 47.1549 35 44.6549 35C42.1549 35 40.4883 33.3333 40.4883 33.3333V25H47.9883Z" stroke="#FAFAFA" stroke-width="2"/>
<path d="M40.4886 25V33.3333C40.4886 33.3333 38.8219 35 36.3219 35C33.8219 35 32.1553 33.3333 32.1553 33.3333L32.9886 25H40.4886Z" stroke="#FAFAFA" stroke-width="2"/>
<path d="M32.9883 25H26.3366C26.0999 24.9999 25.8709 25.0838 25.6902 25.2367C25.5096 25.3896 25.389 25.6016 25.3499 25.835L24.1749 32.8833C24.1475 33.0231 24.156 33.1676 24.1997 33.3032C24.2435 33.4387 24.321 33.5609 24.4249 33.6583C24.9716 34.1417 26.1933 35.0017 27.9883 35.0017C30.4883 35.0017 32.1549 33.335 32.1549 33.335L32.9883 25.0017V25Z" stroke="#FAFAFA" stroke-width="2"/>
<path d="M25.5 35V51.6667C25.5 52.5507 25.8512 53.3986 26.4763 54.0237C27.1014 54.6488 27.9493 55 28.8333 55H52.1667C53.0507 55 53.8986 54.6488 54.5237 54.0237C55.1488 53.3986 55.5 52.5507 55.5 51.6667V35" stroke="#FAFAFA" stroke-width="2"/>
<path d="M45.2217 55V45C45.2217 44.1159 44.8705 43.2681 44.2454 42.6429C43.6202 42.0178 42.7724 41.6666 41.8883 41.6666H38.555C37.671 41.6666 36.8231 42.0178 36.198 42.6429C35.5729 43.2681 35.2217 44.1159 35.2217 45V55" stroke="#FAFAFA" stroke-width="2" stroke-miterlimit="16"/>
</svg>

<svg xmlns="http://www.w3.org/2000/svg" width="81" height="80" fill="none" xmlns:v="https://vecta.io/nano"><path opacity=".3" d="M80.5 40c0 22.091-17.909 40-40 40S.5 62.091.5 40s17.909-40 40-40 40 17.909 40 40zm-69.093 0c0 16.068 13.025 29.093 29.093 29.093S69.593 56.068 69.593 40 56.568 10.907 40.5 10.907 11.407 23.933 11.407 40z" fill="#2f2e30"/><circle cx="40.5" cy="40" r="29" fill="#000"/><g stroke-width="2"><path d="M54.642 25h-6.653l.833 8.333S50.488 35 52.988 35c1.312.002 2.58-.476 3.565-1.343a.84.84 0 0 0 .25-.775l-1.177-7.048a1 1 0 0 0-.985-.833h0z" stroke="#fff"/><g stroke="#fafafa"><path d="M47.988 25l.833 8.333S47.155 35 44.655 35s-4.167-1.667-4.167-1.667V25h7.5z"/><path d="M40.489 25v8.333S38.822 35 36.322 35s-4.167-1.667-4.167-1.667L32.989 25h7.5z"/><path d="M32.988 25h-6.652a1 1 0 0 0-.987.835l-1.175 7.048a.84.84 0 0 0 .25.775 5.39 5.39 0 0 0 3.563 1.343c2.5 0 4.167-1.667 4.167-1.667l.833-8.333V25zM25.5 35v16.667c0 .884.351 1.732.976 2.357s1.473.976 2.357.976h23.333c.884 0 1.732-.351 2.357-.976s.976-1.473.976-2.357V35"/><path d="M45.222 55V45c0-.884-.351-1.732-.976-2.357s-1.473-.976-2.357-.976h-3.333c-.884 0-1.732.351-2.357.976s-.976 1.473-.976 2.357v10" stroke-miterlimit="16"/></g></g></svg>
